assets/icons/qvision/blur_linear.svg

<svg xmlns="http://www.w3.org/2000/svg" height="24" viewBox="0 0 24 24" width="24"><path d="M0 0h24v24H0z" fill="none"/><path d="M5 17.5c.83 0 1.5-.67 1.5-1.5s-.67-1.5-1.5-1.5-1.5.67-1.5 1.5.67 1.5 1.5 1.5zM9 13c.55 0 1-.45 1-1s-.45-1-1-1-1 .45-1 1 .45 1 1 1zm0-4c.55 0 1-.45 1-1s-.45-1-1-1-1 .45-1 1 .45 1 1 1zM3 21h18v-2H3v2zM5 9.5c.83 0 1.5-.67 1.5-1.5S5.83 6.5 5 6.5 3.5 7.17 3.5 8 4.17 9.5 5 9.5zm0 4c.83 0 1.5-.67 1.5-1.5s-.67-1.5-1.5-1.5-1.5.67-1.5 1.5.67 1.5 1.5 1.5zM9 17c.55 0 1-.45 1-1s-.45-1-1-1-1 .45-1 1 .45 1 1 1zm8-.5c.28 0 .5-.22.5-.5s-.22-.5-.5-.5-.5.22-.5.5.22.5.5.5zM3 3v2h18V3H3zm14 5.5c.28 0 .5-.22.5-.5s-.22-.5-.5-.5-.5.22-.5.5.22.5.5.5zm0 4c.28 0 .5-.22.5-.5s-.22-.5-.5-.5-.5.22-.5.5.22.5.5.5zM13 9c.55 0 1-.45 1-1s-.45-1-1-1-1 .45-1 1 .45 1 1 1zm0 4c.55 0 1-.45 1-1s-.45-1-1-1-1 .45-1 1 .45 1 1 1zm0 4c.55 0 1-.45 1-1s-.45-1-1-1-1 .45-1 1 .45 1 1 1z"/></svg>

<svg width="24" height="24" viewBox="0 0 24 24" fill="none" xmlns="http://www.w3.org/2000/svg">
<g clip-path="url(#clip0_147_3233)">
<path d="M5 17.5C5.83 17.5 6.5 16.83 6.5 16C6.5 15.17 5.83 14.5 5 14.5C4.17 14.5 3.5 15.17 3.5 16C3.5 16.83 4.17 17.5 5 17.5ZM9 13C9.55 13 10 12.55 10 12C10 11.45 9.55 11 9 11C8.45 11 8 11.45 8 12C8 12.55 8.45 13 9 13ZM9 9C9.55 9 10 8.55 10 8C10 7.45 9.55 7 9 7C8.45 7 8 7.45 8 8C8 8.55 8.45 9 9 9ZM3 21H21V19H3V21ZM5 9.5C5.83 9.5 6.5 8.83 6.5 8C6.5 7.17 5.83 6.5 5 6.5C4.17 6.5 3.5 7.17 3.5 8C3.5 8.83 4.17 9.5 5 9.5ZM5 13.5C5.83 13.5 6.5 12.83 6.5 12C6.5 11.17 5.83 10.5 5 10.5C4.17 10.5 3.5 11.17 3.5 12C3.5 12.83 4.17 13.5 5 13.5ZM9 17C9.55 17 10 16.55 10 16C10 15.45 9.55 15 9 15C8.45 15 8 15.45 8 16C8 16.55 8.45 17 9 17ZM17 16.5C17.28 16.5 17.5 16.28 17.5 16C17.5 15.72 17.28 15.5 17 15.5C16.72 15.5 16.5 15.72 16.5 16C16.5 16.28 16.72 16.5 17 16.5ZM3 3V5H21V3H3ZM17 8.5C17.28 8.5 17.5 8.28 17.5 8C17.5 7.72 17.28 7.5 17 7.5C16.72 7.5 16.5 7.72 16.5 8C16.5 8.28 16.72 8.5 17 8.5ZM17 12.5C17.28 12.5 17.5 12.28 17.5 12C17.5 11.72 17.28 11.5 17 11.5C16.72 11.5 16.5 11.72 16.5 12C16.5 12.28 16.72 12.5 17 12.5ZM13 9C13.55 9 14 8.55 14 8C14 7.45 13.55 7 13 7C12.45 7 12 7.45 12 8C12 8.55 12.45 9 13 9ZM13 13C13.55 13 14 12.55 14 12C14 11.45 13.55 11 13 11C12.45 11 12 11.45 12 12C12 12.55 12.45 13 13 13ZM13 17C13.55 17 14 16.55 14 16C14 15.45 13.55 15 13 15C12.45 15 12 15.45 12 16C12 16.55 12.45 17 13 17Z" fill="#323232"/>
</g>
<defs>
<clipPath id="clip0_147_3233">
<rect width="24" height="24" fill="white"/>
</clipPath>
</defs>
</svg>
